apps/symbolic/totem-symbolic.svg

<svg height="24" viewBox="0 0 24 24" width="24" xmlns="http://www.w3.org/2000/svg"><path d="m4 4a2 2 0 0 0 -2 2v12a2 2 0 0 0 2 2h16a2 2 0 0 0 2-2v-14h-4l2 4h-3l-2-4h-2l2 4h-3l-2-4h-2l2 4h-3l-2-4zm5.6425781 7 4.7148439 3-4.7148439 3z" fill="#bebebe"/></svg>

<?xml version="1.0" encoding="UTF-8" standalone="no"?>
<svg
   xmlns:dc="http://purl.org/dc/elements/1.1/"
   xmlns:cc="http://creativecommons.org/ns#"
   xmlns:rdf="http://www.w3.org/1999/02/22-rdf-syntax-ns#"
   xmlns:svg="http://www.w3.org/2000/svg"
   xmlns="http://www.w3.org/2000/svg"
   xmlns:sodipodi="http://sodipodi.sourceforge.net/DTD/sodipodi-0.dtd"
   xmlns:inkscape="http://www.inkscape.org/namespaces/inkscape"
   version="1.1"
   width="24"
   height="24"
   viewBox="0 0 24 24"
   id="svg2"
   inkscape:version="0.92.1 r15371"
   sodipodi:docname="totem-symbolic.svg">
  <metadata
     id="metadata10">
    <rdf:RDF>
      <cc:Work
         rdf:about="">
        <dc:format>image/svg+xml</dc:format>
        <dc:type
           rdf:resource="http://purl.org/dc/dcmitype/StillImage" />
      </cc:Work>
    </rdf:RDF>
  </metadata>
  <defs
     id="defs8">
    <style
       id="current-color-scheme"
       type="text/css">
      .ColorScheme-Text {
        color:#bebebe;
      }
      </style>
  </defs>
  <sodipodi:namedview
     pagecolor="#ffffff"
     bordercolor="#666666"
     borderopacity="1"
     objecttolerance="10"
     gridtolerance="10"
     guidetolerance="10"
     inkscape:pageopacity="0"
     inkscape:pageshadow="2"
     inkscape:window-width="640"
     inkscape:window-height="480"
     id="namedview6"
     showgrid="false"
     inkscape:zoom="25.291667"
     inkscape:cx="5.0411862"
     inkscape:cy="12"
     inkscape:current-layer="svg2" />
  <path
     style="fill:#bebebe;fill-opacity:1"
     d="M 4 4 A 2 2 0 0 0 2 6 L 2 18 A 2 2 0 0 0 4 20 L 20 20 A 2 2 0 0 0 22 18 L 22 4 L 18 4 L 20 8 L 17 8 L 15 4 L 13 4 L 15 8 L 12 8 L 10 4 L 8 4 L 10 8 L 7 8 L 5 4 L 4 4 z M 9.6425781 11 L 14.357422 14 L 9.6425781 17 L 9.6425781 11 z "
     id="path4" />
</svg>
